X: 1
T: One That Was Lost, The
M: 6/8
L: 1/8
R: jig
K: Emin
edB BAF|E2D EFA|BAF D2B|~A3 def|
edB BAF|E2D EFA|dfb afd|1efe e2f:|2efe e2d||
Bee efa|baf edB|~d3 Bdd|AFA dBA|
Bee efa|baf edB|dfb afd|efe e2d|
Bee efa|baf edB|~d3 Bdd|AFA def|
gfe fed|BeB dBA|dfb afd|e2f g2f|
